;FLAVOR:Marlin
;TIME:3543
;Filament used: 2.21346m
;Layer height: 0.2
;MINX:131.24
;MINY:130.078
;MINZ:0.2
;MAXX:169.551
;MAXY:168.396
;MAXZ:42.4
;TARGET_MACHINE.NAME:Artillery Sidewinder X1
;Generated with Cura_SteamEngine 5.8.0
M140 S60
M105
M190 S60
M104 S200
M105
M109 S200
M82 ;absolute extrusion mode
G28 ; home all axes
 M117 Purge extruder
 G92 E0 ; reset extruder
 G1 Z1.0 F3000 ; move z up little to prevent scratching of surface
 G1 X2 Y20 Z0.3 F5000.0 ; move to start-line position
 G1 X2 Y200.0 Z0.3 F1500.0 E15 ; draw 1st line
 G1 X2 Y200.0 Z0.4 F5000.0 ; move to side a little
 G1 X2 Y20 Z0.4 F1500.0 E30 ; draw 2nd line
 G92 E0 ; reset extruder
 G1 Z1.0 F3000 ; move z up little to prevent scratching of surface
G92 E0
G92 E0
G1 F1500 E-2
;LAYER_COUNT:212
;LAYER:0
M107
G1 F300 Z0.4
G0 F6000 X135.216 Y139.247 Z0.4
;TYPE:SKIRT
G1 F300 Z0.2
G1 F1500 E0
G1 F1200 X136.858 Y138.058 E0.07417
G1 X138.313 Y137.223 E0.13555
G1 X139.662 Y136.875 E0.18652
G1 X139.741 Y136.696 E0.19368
G1 X140.928 Y134.925 E0.27168
G1 X141.163 Y134.709 E0.28335
G1 X141.716 Y133.892 E0.31945
G1 X143.369 Y132.551 E0.39732
G1 X145.421 Y131.278 E0.48567
G1 X146.824 Y130.633 E0.54217
G1 X149.612 Y130.078 E0.64617
G1 X150.327 Y130.188 E0.67264
G1 X151.519 Y130.144 E0.71628
G1 X153.351 Y130.658 E0.78589
G1 X154.672 Y131.194 E0.83805
G1 X155.178 Y131.592 E0.8616
G1 X155.773 Y131.789 E0.88453
G1 X157.2 Y132.57 E0.94405
G1 X158.016 Y133.074 E0.97914
G1 X158.42 Y133.291 E0.99592
G1 X159.487 Y133.7 E1.03772
G1 X160.311 Y134.051 E1.07049
G1 X161.917 Y134.456 E1.13109
G1 X162.896 Y134.826 E1.16938
G1 X164.915 Y136.269 E1.26017
G1 X165.9 Y137.186 E1.30941
G1 X167.275 Y138.784 E1.38654
G1 X168.617 Y141.987 E1.51359
G1 X168.994 Y143.327 E1.56452
G1 X169.078 Y145.817 E1.65567
G1 X169.018 Y147.292 E1.70968
G1 X168.73 Y149.307 E1.78415
G1 X168.687 Y149.453 E1.78972
G1 X168.965 Y149.981 E1.81155
G1 X169.317 Y151.432 E1.86618
G1 X169.551 Y153.872 E1.95586
G1 X169.493 Y155.173 E2.00351
G1 X168.912 Y157.153 E2.079
G1 X168.264 Y158.721 E2.14107
G1 X167.104 Y160.224 E2.21054
G1 X166.445 Y160.944 E2.24625
G1 X165.435 Y162.077 E2.30178
G1 X163.676 Y163.266 E2.37946
G1 X162.015 Y163.875 E2.44418
G1 X161.881 Y163.909 E2.44924
G1 X159.912 Y165.553 E2.54309
G1 X158.173 Y166.682 E2.61894
G1 X152.329 Y168.169 E2.83956
G1 X150.447 Y168.396 E2.90892
G1 X144.368 Y167.15 E3.13595
G1 X142.754 Y166.58 E3.19857
G1 X137.825 Y162.896 E3.42371
G1 X136.533 Y161.474 E3.494
G1 X133.78 Y156.172 E3.71257
G1 X133.218 Y154.309 E3.78377
G1 X133.188 Y153.43 E3.81594
G1 X132.187 Y151.95 E3.88131
G1 X131.408 Y149.621 E3.97116
G1 X131.24 Y147.683 E4.04233
G1 X131.276 Y146.135 E4.09898
G1 X131.398 Y145.254 E4.13152
G1 X132.339 Y142.974 E4.22177
G1 X133.031 Y141.698 E4.27487
G1 X135.216 Y139.247 E4.395
G0 F6000 X135.511 Y139.577
G1 F1200 X137.077 Y138.44 E4.46581
G1 X138.482 Y137.634 E4.52507
G1 X139.999 Y137.242 E4.58239
G1 X140.106 Y136.941 E4.59408
G1 X141.263 Y135.215 E4.6701
G1 X141.498 Y134.999 E4.68178
G1 X142.044 Y134.193 E4.7174
G1 X143.602 Y132.925 E4.79089
G1 X145.605 Y131.678 E4.87722
G1 X146.96 Y131.055 E4.93178
G1 X149.623 Y130.525 E5.03112
G1 X150.302 Y130.63 E5.05626
G1 X151.466 Y130.587 E5.09887
G1 X153.232 Y131.082 E5.16597
G1 X154.447 Y131.577 E5.21397
G1 X154.967 Y131.986 E5.23818
G1 X155.6 Y132.196 E5.26258
G1 X156.969 Y132.944 E5.31965
G1 X157.793 Y133.453 E5.35509
G1 X158.241 Y133.694 E5.3737
G1 X159.314 Y134.105 E5.41574
G1 X160.17 Y134.47 E5.44978
G1 X161.809 Y134.883 E5.51162
G1 X162.687 Y135.217 E5.54599
G1 X164.616 Y136.591 E5.63264
G1 X165.566 Y137.473 E5.68006
G1 X166.896 Y139.019 E5.75468
G1 X168.193 Y142.106 E5.87718
G1 X168.556 Y143.396 E5.92621
G1 X168.638 Y145.8 E6.01422
G1 X168.582 Y147.23 E6.06657
G1 X168.294 Y149.245 E6.14104
G1 X168.207 Y149.486 E6.15042
G1 X168.549 Y150.135 E6.17726
G1 X168.889 Y151.536 E6.23
G1 X169.111 Y153.852 E6.31512
G1 X169.055 Y155.104 E6.36098
G1 X168.505 Y156.985 E6.43268
G1 X167.879 Y158.5 E6.49265
G1 X166.779 Y159.927 E6.55857
G1 X166.12 Y160.647 E6.59428
G1 X165.144 Y161.742 E6.64795
G1 X163.474 Y162.871 E6.7217
G1 X161.863 Y163.462 E6.78448
G1 X161.679 Y163.505 E6.79139
G1 X159.672 Y165.184 E6.88713
G1 X157.993 Y166.274 E6.96036
G1 X152.276 Y167.732 E7.17622
G1 X150.464 Y167.951 E7.243
G1 X144.514 Y166.735 E7.46518
G1 X142.962 Y166.187 E7.5254
G1 X138.126 Y162.572 E7.7463
G1 X136.898 Y161.221 E7.8131
G1 X134.188 Y156.001 E8.02828
G1 X133.656 Y154.239 E8.09562
G1 X133.624 Y153.29 E8.13036
G1 X132.586 Y151.755 E8.19815
G1 X131.842 Y149.53 E8.28399
G1 X131.68 Y147.692 E8.35149
G1 X131.712 Y146.196 E8.40624
G1 X131.827 Y145.369 E8.43679
G1 X132.726 Y143.184 E8.52323
G1 X133.395 Y141.951 E8.57455
G1 X135.511 Y139.577 E8.6909
G0 F6000 X135.806 Y139.907
G1 F1200 X137.296 Y138.822 E8.75834
G1 X138.651 Y138.045 E8.81548
G1 X140.306 Y137.617 E8.87803
G1 X140.366 Y137.567 E8.88088
G1 X140.471 Y137.186 E8.89534
G1 X141.598 Y135.505 E8.96939
G1 X141.833 Y135.289 E8.98107
G1 X142.372 Y134.494 E9.01621
G1 X143.835 Y133.298 E9.08534
G1 X145.789 Y132.078 E9.16962
G1 X147.096 Y131.477 E9.22225
G1 X149.633 Y130.972 E9.31689
G1 X150.276 Y131.072 E9.3407
G1 X151.413 Y131.03 E9.38233
G1 X153.113 Y131.506 E9.44691
G1 X154.223 Y131.961 E9.4908
G1 X154.756 Y132.38 E9.51561
G1 X155.427 Y132.603 E9.54148
G1 X156.738 Y133.318 E9.59611
G1 X157.577 Y133.836 E9.63219
G1 X158.058 Y134.095 E9.65217
G1 X159.142 Y134.51 E9.69464
G1 X160.032 Y134.889 E9.73003
G1 X161.701 Y135.31 E9.79301
G1 X162.478 Y135.608 E9.82345
G1 X164.317 Y136.914 E9.90598
G1 X165.232 Y137.76 E9.95157
G1 X166.518 Y139.255 E10.02372
G1 X167.769 Y142.225 E10.14162
G1 X168.118 Y143.465 E10.18875
G1 X168.198 Y145.783 E10.27361
G1 X168.146 Y147.168 E10.32432
G1 X167.858 Y149.183 E10.39879
G1 X167.719 Y149.504 E10.41159
G1 X168.133 Y150.289 E10.44406
G1 X168.461 Y151.64 E10.49492
G1 X168.671 Y153.832 E10.57548
G1 X168.617 Y155.035 E10.61954
G1 X168.098 Y156.817 E10.68745
G1 X167.494 Y158.279 E10.74532
G1 X166.454 Y159.63 E10.8077
G1 X165.795 Y160.35 E10.84341
G1 X164.852 Y161.408 E10.89526
G1 X163.273 Y162.476 E10.965
G1 X161.711 Y163.049 E11.02587
G1 X161.481 Y163.096 E11.03446
G1 X159.432 Y164.815 E11.13231
G1 X157.813 Y165.866 E11.20293
G1 X152.223 Y167.295 E11.41403
G1 X150.481 Y167.506 E11.47823
G1 X144.661 Y166.32 E11.69553
G1 X143.169 Y165.793 E11.75343
G1 X138.427 Y162.248 E11.97004
G1 X137.261 Y160.965 E12.03347
G1 X134.597 Y155.835 E12.24495
G1 X134.094 Y154.169 E12.30862
G1 X134.06 Y153.15 E12.34592
G1 X132.984 Y151.559 E12.41619
G1 X132.276 Y149.44 E12.49793
G1 X132.12 Y147.701 E12.56181
G1 X132.148 Y146.256 E12.61469
G1 X132.255 Y145.484 E12.6432
G1 X133.113 Y143.394 E12.72586
G1 X133.759 Y142.204 E12.7754
G1 X135.806 Y139.907 E12.88797
G0 F6000 X136.107 Y140.231
G1 F1200 X137.515 Y139.204 E12.95173
G1 X138.819 Y138.456 E13.00673
G1 X140.355 Y138.055 E13.06481
G1 X140.497 Y138.033 E13.07006
G1 X140.753 Y137.816 E13.08234
G1 X140.876 Y137.371 E13.09923
G1 X141.933 Y135.795 E13.16866
G1 X142.168 Y135.579 E13.18034
G1 X142.699 Y134.796 E13.21495
G1 X144.114 Y133.639 E13.28182
G1 X145.973 Y132.478 E13.36201
G1 X147.232 Y131.899 E13.41271
G1 X149.643 Y131.419 E13.50265
G1 X150.251 Y131.513 E13.52516
G1 X151.36 Y131.473 E13.56576
G1 X152.994 Y131.93 E13.62784
G1 X154 Y132.345 E13.66765
G1 X154.545 Y132.774 E13.69303
G1 X155.288 Y133.021 E13.72167
G1 X156.507 Y133.692 E13.77258
G1 X157.361 Y134.219 E13.8093
G1 X157.875 Y134.496 E13.83066
G1 X158.97 Y134.915 E13.87355
G1 X159.893 Y135.308 E13.91026
G1 X161.543 Y135.721 E13.97249
G1 X162.27 Y136 E14.00098
G1 X164.019 Y137.238 E14.07937
G1 X164.898 Y138.047 E14.12308
G1 X166.141 Y139.492 E14.19282
G1 X167.345 Y142.344 E14.30608
G1 X167.68 Y143.534 E14.35131
G1 X167.758 Y145.767 E14.43305
G1 X167.71 Y147.106 E14.48207
G1 X167.43 Y149.063 E14.5544
G1 X167.231 Y149.523 E14.57274
G1 X167.718 Y150.445 E14.61089
G1 X168.033 Y151.744 E14.65979
G1 X168.231 Y153.812 E14.7358
G1 X168.179 Y154.963 E14.77795
G1 X167.691 Y156.649 E14.84217
G1 X167.109 Y158.058 E14.89794
G1 X166.129 Y159.333 E14.95677
G1 X165.47 Y160.053 E14.99248
G1 X164.56 Y161.074 E15.04252
G1 X163.072 Y162.081 E15.10826
G1 X161.559 Y162.636 E15.16722
G1 X161.287 Y162.684 E15.17732
G1 X159.192 Y164.446 E15.27748
G1 X157.633 Y165.458 E15.34548
G1 X152.17 Y166.858 E15.55181
G1 X150.498 Y167.061 E15.61343
G1 X144.808 Y165.905 E15.82586
G1 X143.376 Y165.399 E15.88142
G1 X138.728 Y161.924 E16.09375
G1 X137.626 Y160.712 E16.15368
G1 X135.005 Y155.664 E16.36178
G1 X134.532 Y154.099 E16.42159
G1 X134.496 Y153.009 E16.46149
G1 X133.382 Y151.362 E16.53424
G1 X132.709 Y149.349 E16.61189
G1 X132.56 Y147.709 E16.67214
G1 X132.584 Y146.316 E16.72311
G1 X132.683 Y145.599 E16.7496
G1 X133.5 Y143.604 E16.82847
G1 X134.121 Y142.46 E16.87609
G1 X136.107 Y140.231 E16.98532
G0 F6000 X136.406 Y140.557
G1 F1200 X137.734 Y139.586 E17.0455
G1 X138.987 Y138.867 E17.09836
G1 X140.466 Y138.481 E17.15428
G1 X140.685 Y138.451 E17.16237
G1 X141.14 Y138.065 E17.1842
G1 X141.282 Y137.556 E17.20353
G1 X142.268 Y136.085 E17.26832
G1 X142.503 Y135.869 E17.28
G1 X143.026 Y135.098 E17.31409
G1 X144.393 Y133.98 E17.3787
G1 X146.157 Y132.878 E17.45479
G1 X147.368 Y132.321 E17.50356
G1 X149.654 Y131.866 E17.58884
G1 X150.226 Y131.954 E17.61001
G1 X151.308 Y131.915 E17.64962
G1 X152.826 Y132.337 E17.70727
G1 X153.776 Y132.729 E17.74486
G1 X154.334 Y133.168 E17.77084
G1 X155.115 Y133.427 E17.80094
G1 X156.276 Y134.066 E17.84943
G1 X157.145 Y134.602 E17.88678
G1 X157.692 Y134.897 E17.90952
G1 X158.798 Y135.32 E17.95284
G1 X159.753 Y135.726 E17.99081
G1 X161.385 Y136.132 E18.05234
G1 X162.06 Y136.391 E18.07879
G1 X163.721 Y137.562 E18.15314
G1 X164.6 Y138.371 E18.19685
G1 X165.763 Y139.727 E18.26221
G1 X166.921 Y142.463 E18.37091
G1 X167.242 Y143.603 E18.41424
G1 X167.318 Y145.751 E18.49287
G1 X167.27 Y147.09 E18.54189
G1 X167.003 Y148.941 E18.61031
G1 X166.744 Y149.542 E18.63426
G1 X167.302 Y150.599 E18.67799
G1 X167.605 Y151.848 E18.72501
G1 X167.791 Y153.792 E18.79646
G1 X167.741 Y154.892 E18.83674
G1 X167.284 Y156.481 E18.89723
G1 X166.724 Y157.837 E18.95091
G1 X165.804 Y159.036 E19.0062
G1 X165.145 Y159.756 E19.04191
G1 X164.268 Y160.74 E19.09014
G1 X162.871 Y161.686 E19.15186
G1 X161.407 Y162.223 E19.20891
G1 X161.101 Y162.265 E19.22021
G1 X158.952 Y164.077 E19.32306
G1 X157.453 Y165.05 E19.38844
G1 X152.117 Y166.421 E19.59
G1 X150.514 Y166.616 E19.64908
G1 X144.955 Y165.49 E19.8566
G1 X143.583 Y165.005 E19.90984
G1 X139.026 Y161.598 E20.11801
G1 X137.99 Y160.459 E20.17434
G1 X135.414 Y155.498 E20.37885
G1 X134.97 Y154.029 E20.435
G1 X134.932 Y152.868 E20.4775
G1 X133.78 Y151.165 E20.55272
G1 X133.142 Y149.258 E20.62629
G1 X133 Y147.716 E20.68294
G1 X133.02 Y146.376 E20.73198
G1 X133.112 Y145.712 E20.7565
G1 X133.887 Y143.814 E20.83151
G1 X134.483 Y142.716 E20.87721
G1 X136.406 Y140.557 E20.98299
G0 F6000 X136.706 Y140.883
G1 F1200 X137.953 Y139.968 E21.03958
G1 X139.158 Y139.277 E21.0904
G1 X140.525 Y138.917 E21.14212
G1 X140.871 Y138.87 E21.1549
G1 X141.528 Y138.312 E21.18643
G1 X141.688 Y137.74 E21.20816
G1 X142.603 Y136.375 E21.26828
G1 X142.838 Y136.159 E21.27996
G1 X143.353 Y135.4 E21.31352
G1 X144.672 Y134.321 E21.37587
G1 X146.341 Y133.278 E21.44787
G1 X147.504 Y132.743 E21.49471
G1 X149.665 Y132.313 E21.57532
G1 X150.201 Y132.395 E21.59516
G1 X151.256 Y132.357 E21.63378
G1 X152.708 Y132.761 E21.68892
G1 X153.551 Y133.112 E21.72233
G1 X154.123 Y133.562 E21.74896
G1 X154.939 Y133.833 E21.78042
G1 X156.045 Y134.441 E21.82659
G1 X156.916 Y134.978 E21.86403
G1 X157.509 Y135.298 E21.88868
G1 X158.626 Y135.725 E21.93243
G1 X159.612 Y136.144 E21.97163
G1 X161.228 Y136.543 E22.03253
G1 X161.849 Y136.781 E22.05686
G1 X163.467 Y137.922 E22.12929
G1 X164.301 Y138.694 E22.17087
G1 X165.384 Y139.961 E22.23185
G1 X166.497 Y142.582 E22.33603
G1 X166.804 Y143.672 E22.37746
G1 X166.878 Y145.735 E22.45299
G1 X166.83 Y147.074 E22.50201
G1 X166.577 Y148.818 E22.56648
G1 X166.256 Y149.56 E22.59606
G1 X166.886 Y150.753 E22.64542
G1 X167.177 Y151.952 E22.69056
G1 X167.351 Y153.772 E22.75745
G1 X167.303 Y154.822 E22.79591
G1 X166.877 Y156.313 E22.85264
G1 X166.339 Y157.616 E22.90422
G1 X165.479 Y158.739 E22.95597
G1 X164.82 Y159.459 E22.99168
G1 X163.976 Y160.406 E23.03809
G1 X162.67 Y161.291 E23.09581
G1 X161.255 Y161.81 E23.15095
G1 X160.923 Y161.839 E23.16314
G1 X158.712 Y163.708 E23.26906
G1 X157.273 Y164.642 E23.33183
G1 X152.064 Y165.984 E23.52863
G1 X150.53 Y166.171 E23.58517
G1 X145.102 Y165.075 E23.78776
G1 X143.79 Y164.611 E23.83868
G1 X139.327 Y161.274 E24.04256
G1 X138.353 Y160.203 E24.09552
G1 X135.823 Y155.332 E24.29634
G1 X135.408 Y153.959 E24.34882
G1 X135.368 Y152.727 E24.39391
G1 X134.177 Y150.967 E24.47166
G1 X133.576 Y149.168 E24.54106
G1 X133.44 Y147.721 E24.59423
G1 X133.456 Y146.436 E24.64125
G1 X133.54 Y145.829 E24.66367
G1 X134.274 Y144.024 E24.73496
G1 X134.845 Y142.972 E24.77875
G1 X136.706 Y140.883 E24.88111
G0 F6000 X137.006 Y141.208
G1 F1200 X138.172 Y140.35 E24.93407
G1 X139.326 Y139.688 E24.98275
G1 X140.637 Y139.343 E25.03234
G1 X141.057 Y139.289 E25.04784
G1 X141.916 Y138.559 E25.08908
G1 X142.094 Y137.924 E25.11321
G1 X142.938 Y136.665 E25.16866
G1 X143.172 Y136.45 E25.18029
G1 X143.68 Y135.702 E25.21337
G1 X144.951 Y134.662 E25.27345
G1 X146.525 Y133.678 E25.34137
G1 X147.64 Y133.165 E25.38627
G1 X149.676 Y132.76 E25.46222
G1 X150.191 Y132.839 E25.48128
G1 X150.296 Y132.828 E25.48514
G1 X151.205 Y132.799 E25.51842
G1 X152.539 Y133.167 E25.56905
G1 X153.325 Y133.494 E25.60019
G1 X153.912 Y133.956 E25.62752
G1 X154.766 Y134.239 E25.66044
G1 X155.814 Y134.816 E25.70421
G1 X156.687 Y135.354 E25.74173
G1 X157.326 Y135.699 E25.76829
G1 X158.454 Y136.13 E25.81247
G1 X159.471 Y136.562 E25.8529
G1 X161.07 Y136.954 E25.91313
G1 X161.641 Y137.173 E25.93551
G1 X163.169 Y138.246 E26.00382
G1 X163.966 Y138.98 E26.04346
G1 X165.005 Y140.196 E26.10197
G1 X166.073 Y142.701 E26.20161
G1 X166.366 Y143.741 E26.24114
G1 X166.438 Y145.719 E26.31355
G1 X166.39 Y147.058 E26.36257
G1 X166.15 Y148.696 E26.42314
G1 X165.769 Y149.579 E26.45832
G1 X166.47 Y150.907 E26.51326
G1 X166.749 Y152.056 E26.55652
G1 X166.911 Y153.752 E26.61886
G1 X166.865 Y154.754 E26.65555
G1 X166.47 Y156.145 E26.70846
G1 X165.954 Y157.395 E26.75793
G1 X165.154 Y158.442 E26.80614
G1 X164.495 Y159.162 E26.84185
G1 X163.684 Y160.072 E26.88645
G1 X162.467 Y160.897 E26.94024
G1 X161.158 Y161.377 E26.99125
G1 X160.744 Y161.413 E27.00645
G1 X158.472 Y163.339 E27.11542
G1 X157.093 Y164.234 E27.17557
G1 X152.011 Y165.547 E27.36761
G1 X150.546 Y165.726 E27.4216
G1 X145.249 Y164.66 E27.61929
G1 X143.997 Y164.217 E27.66788
G1 X139.625 Y160.948 E27.8676
G1 X138.717 Y159.95 E27.91696
G1 X136.232 Y155.166 E28.1142
G1 X135.846 Y153.889 E28.163
G1 X135.803 Y152.534 E28.2126
G1 X135.679 Y152.401 E28.21926
G1 X134.575 Y150.77 E28.29131
G1 X134.009 Y149.077 E28.35662
G1 X133.88 Y147.725 E28.40631
G1 X133.892 Y146.497 E28.45124
G1 X133.969 Y145.943 E28.47171
G1 X134.661 Y144.234 E28.53916
G1 X135.207 Y143.228 E28.58104
G1 X137.006 Y141.208 E28.68
G0 F6000 X137.305 Y141.535
G1 F1200 X138.391 Y140.732 E28.72942
G1 X139.494 Y140.099 E28.77595
G1 X140.749 Y139.769 E28.82342
G1 X141.24 Y139.71 E28.84152
G1 X142.304 Y138.807 E28.89257
G1 X142.5 Y138.108 E28.91913
G1 X143.273 Y136.955 E28.96992
G1 X143.506 Y136.741 E28.98149
G1 X144.007 Y136.004 E29.0141
G1 X145.185 Y135.035 E29.0699
G1 X146.709 Y134.078 E29.13574
G1 X147.776 Y133.587 E29.17872
G1 X149.687 Y133.207 E29.25
G1 X150.182 Y133.283 E29.26832
G1 X150.342 Y133.266 E29.27421
G1 X151.154 Y133.241 E29.30393
G1 X152.37 Y133.573 E29.35005
G1 X153.099 Y133.876 E29.37893
G1 X153.701 Y134.35 E29.40696
G1 X154.588 Y134.644 E29.44115
G1 X155.583 Y135.191 E29.48269
G1 X156.458 Y135.73 E29.52029
G1 X157.063 Y136.056 E29.54544
G1 X157.306 Y136.162 E29.55514
G1 X158.282 Y136.535 E29.59336
G1 X159.335 Y136.982 E29.63522
G1 X160.912 Y137.365 E29.69459
G1 X161.433 Y137.565 E29.71501
G1 X162.872 Y138.571 E29.77924
G1 X163.631 Y139.266 E29.8169
G1 X164.628 Y140.433 E29.87305
G1 X165.65 Y142.82 E29.96805
